X:2
T:How High The Moon
C:Morgan Lewis
L:1/4
M:C
I:linebreak $
K:G
"Am" z D"D4" G A ||"G" A2 B2 |"G6" z D G A ||[K:F]"Gm" B4 |$"Gb7" z C F G |"F" G2 A2 |
"F6" z C F G ||[K:Eb]"Fm" A4 |$"E7" z D E F |"Eb" G G"Cm" G G ||[K:G]"Aø" G G"D7" A/G/ A ||1$
"Gm" _B2 _B2 |"Am" z G"D7" A/G/ A |"G" B2"Am" z2 |"Bm" z A"C" B c |"Bm" d d"Bb7" d d :|2$
"G" B2"Am" z2 |"Bm" z A"C" B c |"Bm" d d"Bb7" d d |"Am" d D"Ab7" G A |"G6" G4 |]

